img/payment_payco.svg

<svg width="102" height="36" viewBox="0 0 102 36" fill="none" xmlns="http://www.w3.org/2000/svg">
<path fill-rule="evenodd" clip-rule="evenodd" d="M53.524 18.0255V17.9984C53.5121 17.335 53.6347 16.6762 53.8844 16.0615C54.134 15.4469 54.5056 14.8891 54.9767 14.4219C55.4477 13.9548 56.0086 13.5878 56.6253 13.3432C57.2421 13.0985 57.902 12.9813 58.5653 12.9986C59.7226 12.9503 60.8621 13.2958 61.7978 13.9785C61.9266 14.0779 62.0309 14.2055 62.1027 14.3515C62.1745 14.4975 62.212 14.658 62.2121 14.8207C62.212 14.9579 62.1847 15.0937 62.1317 15.2203C62.0787 15.3469 62.0012 15.4617 61.9035 15.5581C61.8058 15.6545 61.69 15.7306 61.5627 15.7819C61.4354 15.8332 61.2992 15.8587 61.162 15.857C60.9339 15.8545 60.712 15.7822 60.5262 15.6499C59.9643 15.2035 59.2679 14.9601 58.5503 14.9592C58.1665 14.9669 57.7883 15.0517 57.438 15.2083C57.0876 15.365 56.7723 15.5905 56.5108 15.8714C56.2493 16.1522 56.0468 16.4828 55.9155 16.8434C55.7842 17.204 55.7267 17.5873 55.7464 17.9705V17.9984C55.7238 18.3836 55.7792 18.7694 55.9091 19.1328C56.0391 19.4962 56.2409 19.8296 56.5026 20.1133C56.7643 20.3969 57.0806 20.6248 57.4324 20.7835C57.7842 20.9422 58.1644 21.0283 58.5503 21.0368C59.3201 21.053 60.0685 20.7824 60.6498 20.2775C60.7482 20.1914 60.8628 20.1258 60.9869 20.0845C61.111 20.0432 61.2421 20.027 61.3726 20.0369C61.503 20.0467 61.6301 20.0825 61.7466 20.142C61.8631 20.2016 61.9665 20.2837 62.0509 20.3836C62.1353 20.4835 62.1989 20.5992 62.2381 20.724C62.2773 20.8488 62.2912 20.9801 62.2791 21.1103C62.2669 21.2406 62.229 21.3671 62.1674 21.4825C62.1059 21.5979 62.022 21.6998 61.9206 21.7824C61.1878 22.4071 60.2929 22.8113 59.3397 22.9482C58.3865 23.0851 57.414 22.9491 56.535 22.556C55.6559 22.1628 54.9063 21.5287 54.373 20.7269C53.8397 19.9252 53.5446 18.9888 53.5219 18.0262L53.524 18.0255ZM36.2351 21.465L39.6054 13.8547C39.7018 13.6041 39.8726 13.389 40.0948 13.2384C40.317 13.0877 40.58 13.0086 40.8484 13.0118H40.9734C41.2401 13.0089 41.5013 13.0883 41.7213 13.2391C41.9413 13.3899 42.1094 13.6049 42.2028 13.8547L45.5732 21.465C45.6409 21.5981 45.6786 21.7443 45.6839 21.8935C45.6857 22.027 45.661 22.1596 45.6111 22.2835C45.5613 22.4074 45.4873 22.5202 45.3936 22.6152C45.2998 22.7103 45.1881 22.7858 45.0649 22.8374C44.9417 22.889 44.8095 22.9156 44.6759 22.9156C44.4504 22.9152 44.2307 22.8444 44.0473 22.7132C43.864 22.582 43.7261 22.3968 43.653 22.1835L43.0044 20.6643H38.7496L38.0724 22.2521C37.9954 22.449 37.8604 22.6179 37.6852 22.7364C37.5101 22.8549 37.303 22.9174 37.0916 22.9156C36.9615 22.9159 36.8328 22.8902 36.7128 22.8401C36.5928 22.7899 36.484 22.7164 36.3928 22.6238C36.3015 22.5311 36.2297 22.4212 36.1814 22.3005C36.1331 22.1798 36.1093 22.0507 36.1115 21.9207C36.12 21.7618 36.1622 21.6065 36.2351 21.465ZM42.2164 18.7851L40.8763 15.5946L39.5361 18.7851H42.2164ZM28.9214 14.1436C28.9203 14.0037 28.947 13.8648 29.0001 13.7353C29.0531 13.6057 29.1314 13.4881 29.2304 13.3891C29.3294 13.2901 29.4471 13.2118 29.5767 13.1588C29.7063 13.1057 29.8451 13.079 29.9851 13.0801H32.8719C35.1785 13.0801 36.5744 14.4479 36.5744 16.4228V16.4507C36.5744 18.6884 34.8342 19.8484 32.6647 19.8484H31.0495V21.8483C31.0495 22.1303 30.9375 22.4009 30.738 22.6003C30.5385 22.7998 30.268 22.9118 29.9859 22.9118C29.7037 22.9118 29.4332 22.7998 29.2337 22.6003C29.0342 22.4009 28.9222 22.1303 28.9222 21.8483L28.9214 14.1436ZM32.734 17.9556C32.943 17.9816 33.1551 17.9633 33.3565 17.9019C33.558 17.8405 33.7442 17.7375 33.9032 17.5993C34.0622 17.4612 34.1903 17.2912 34.2792 17.1003C34.3681 16.9094 34.4158 16.7019 34.4192 16.4914V16.4635C34.4192 15.5107 33.757 14.9993 32.6926 14.9993H31.0495V17.9556H32.734ZM44.8117 14.8634L47.9334 19.1039V21.8538C47.9334 22.1358 48.0455 22.4063 48.245 22.6058C48.4444 22.8052 48.715 22.9173 48.9971 22.9173C49.2792 22.9173 49.5498 22.8052 49.7492 22.6058C49.9487 22.4063 50.0608 22.1358 50.0608 21.8538V19.0639L53.1826 14.8498C53.349 14.6355 53.4455 14.3751 53.459 14.1041C53.4663 13.9662 53.4445 13.8282 53.395 13.6992C53.3456 13.5702 53.2695 13.4531 53.1719 13.3553C53.0742 13.2576 52.9571 13.1815 52.8281 13.132C52.6991 13.0824 52.5611 13.0605 52.4232 13.0677C52.2123 13.0762 52.0073 13.1392 51.8281 13.2507C51.649 13.3621 51.5018 13.5181 51.4009 13.7034L49.0107 17.1147L46.6626 13.7313C46.5606 13.5399 46.4097 13.3789 46.2252 13.2648C46.0407 13.1508 45.8293 13.0877 45.6125 13.082C45.4754 13.0788 45.3391 13.1028 45.2113 13.1525C45.0836 13.2022 44.9669 13.2767 44.8681 13.3717C44.7693 13.4667 44.6902 13.5804 44.6356 13.7061C44.5809 13.8318 44.5516 13.9671 44.5495 14.1041C44.5519 14.379 44.6439 14.6456 44.8117 14.8634ZM62.8365 17.9971V18.0243C62.8962 19.3491 63.4655 20.5996 64.4255 21.5147C65.3854 22.4298 66.6618 22.9387 67.9882 22.9352C69.3145 22.9317 70.5883 22.416 71.5434 21.4959C72.4985 20.5757 73.0612 19.3222 73.1139 17.9971V17.9693C73.0541 16.6445 72.4848 15.394 71.5247 14.4789C70.5647 13.5639 69.2882 13.055 67.9619 13.0586C66.6355 13.0622 65.3618 13.578 64.4067 14.4982C63.4517 15.4185 62.8891 16.672 62.8365 17.9971ZM70.8901 17.9971V18.0243C70.9064 18.4147 70.8433 18.8044 70.7046 19.1698C70.566 19.5352 70.3548 19.8686 70.0836 20.1501C69.8125 20.4315 69.487 20.6551 69.127 20.8073C68.7671 20.9595 68.3799 21.0372 67.9891 21.0356C67.5954 21.0347 67.2059 20.9546 66.8437 20.8002C66.4816 20.6458 66.1541 20.4201 65.8809 20.1367C65.6077 19.8533 65.3942 19.5178 65.2533 19.1502C65.1123 18.7827 65.0466 18.3905 65.0602 17.9971V17.9693C65.0441 17.5788 65.1073 17.1892 65.246 16.8239C65.3846 16.4585 65.5959 16.1251 65.867 15.8436C66.1382 15.5622 66.4635 15.3386 66.8234 15.1864C67.1834 15.0342 67.5705 14.9565 67.9613 14.958C68.3551 14.9589 68.7446 15.039 69.1068 15.1934C69.469 15.3479 69.7965 15.5736 70.0697 15.8571C70.343 16.1406 70.5564 16.4762 70.6973 16.8438C70.8383 17.2114 70.9038 17.6036 70.8901 17.9971Z" fill="#797979"/>
<path d="M6 1H96V-1H6V1ZM101 6V30H103V6H101ZM96 35H6V37H96V35ZM1 30V6H-1V30H1ZM6 35C3.23858 35 1 32.7614 1 30H-1C-1 33.866 2.13401 37 6 37V35ZM101 30C101 32.7614 98.7614 35 96 35V37C99.866 37 103 33.866 103 30H101ZM96 1C98.7614 1 101 3.23858 101 6H103C103 2.13401 99.866 -1 96 -1V1ZM6 -1C2.13401 -1 -1 2.13401 -1 6H1C1 3.23858 3.23858 1 6 1V-1Z" fill="#E2E2E2"/>
</svg>

<?xml version="1.0" encoding="utf-8"?>
<!-- Generator: Adobe Illustrator 26.3.1, SVG Export Plug-In . SVG Version: 6.00 Build 0)  -->
<svg version="1.1" id="레이어_1" xmlns="http://www.w3.org/2000/svg" xmlns:xlink="http://www.w3.org/1999/xlink" x="0px"
	 y="0px" viewBox="0 0 102 36" style="enable-background:new 0 0 102 36;" xml:space="preserve">
<style type="text/css">
	.st0{fill-rule:evenodd;clip-rule:evenodd;fill:#797979;}
</style>
<path class="st0" d="M53.52,18.03V18c-0.01-0.66,0.11-1.32,0.36-1.94c0.25-0.61,0.62-1.17,1.09-1.64c0.47-0.47,1.03-0.83,1.65-1.08
	c0.62-0.24,1.28-0.36,1.94-0.34c1.16-0.05,2.3,0.3,3.23,0.98c0.13,0.1,0.23,0.23,0.3,0.37c0.07,0.15,0.11,0.31,0.11,0.47
	c0,0.14-0.03,0.27-0.08,0.4c-0.05,0.13-0.13,0.24-0.23,0.34c-0.1,0.1-0.21,0.17-0.34,0.22s-0.26,0.08-0.4,0.08
	c-0.23,0-0.45-0.07-0.64-0.21c-0.56-0.45-1.26-0.69-1.98-0.69c-0.38,0.01-0.76,0.09-1.11,0.25c-0.35,0.16-0.67,0.38-0.93,0.66
	c-0.26,0.28-0.46,0.61-0.6,0.97c-0.13,0.36-0.19,0.74-0.17,1.13V18c-0.02,0.39,0.03,0.77,0.16,1.13c0.13,0.36,0.33,0.7,0.59,0.98
	c0.26,0.28,0.58,0.51,0.93,0.67c0.35,0.16,0.73,0.24,1.12,0.25c0.77,0.02,1.52-0.25,2.1-0.76c0.1-0.09,0.21-0.15,0.34-0.19
	s0.26-0.06,0.39-0.05c0.13,0.01,0.26,0.05,0.37,0.11c0.12,0.06,0.22,0.14,0.3,0.24s0.15,0.22,0.19,0.34
	c0.04,0.12,0.05,0.26,0.04,0.39c-0.01,0.13-0.05,0.26-0.11,0.37c-0.06,0.12-0.15,0.22-0.25,0.3c-0.73,0.62-1.63,1.03-2.58,1.17
	c-0.95,0.14-1.93,0-2.8-0.39c-0.88-0.39-1.63-1.03-2.16-1.83C53.84,19.93,53.54,18.99,53.52,18.03L53.52,18.03z M36.24,21.47
	l3.37-7.61c0.1-0.25,0.27-0.47,0.49-0.62c0.22-0.15,0.49-0.23,0.75-0.23h0.12c0.27,0,0.53,0.08,0.75,0.23
	c0.22,0.15,0.39,0.37,0.48,0.62l3.37,7.61c0.07,0.13,0.11,0.28,0.11,0.43c0,0.13-0.02,0.27-0.07,0.39
	c-0.05,0.12-0.12,0.24-0.22,0.33c-0.09,0.1-0.21,0.17-0.33,0.22s-0.26,0.08-0.39,0.08c-0.23,0-0.45-0.07-0.63-0.2
	c-0.18-0.13-0.32-0.32-0.39-0.53L43,20.66h-4.25l-0.68,1.59c-0.08,0.2-0.21,0.37-0.39,0.48c-0.18,0.12-0.38,0.18-0.59,0.18
	c-0.13,0-0.26-0.03-0.38-0.08c-0.12-0.05-0.23-0.12-0.32-0.22c-0.09-0.09-0.16-0.2-0.21-0.32c-0.05-0.12-0.07-0.25-0.07-0.38
	C36.12,21.76,36.16,21.61,36.24,21.47z M42.22,18.79l-1.34-3.19l-1.34,3.19H42.22z M28.92,14.14c0-0.14,0.03-0.28,0.08-0.41
	c0.05-0.13,0.13-0.25,0.23-0.35c0.1-0.1,0.22-0.18,0.35-0.23c0.13-0.05,0.27-0.08,0.41-0.08h2.89c2.31,0,3.7,1.37,3.7,3.34v0.03
	c0,2.24-1.74,3.4-3.91,3.4h-1.62v2c0,0.28-0.11,0.55-0.31,0.75c-0.2,0.2-0.47,0.31-0.75,0.31c-0.28,0-0.55-0.11-0.75-0.31
	c-0.2-0.2-0.31-0.47-0.31-0.75L28.92,14.14z M32.73,17.96c0.21,0.03,0.42,0.01,0.62-0.05c0.2-0.06,0.39-0.16,0.55-0.3
	c0.16-0.14,0.29-0.31,0.38-0.5c0.09-0.19,0.14-0.4,0.14-0.61v-0.03c0-0.95-0.66-1.46-1.73-1.46h-1.64v2.96H32.73z M44.81,14.86
	l3.12,4.24v2.75c0,0.28,0.11,0.55,0.31,0.75c0.2,0.2,0.47,0.31,0.75,0.31s0.55-0.11,0.75-0.31c0.2-0.2,0.31-0.47,0.31-0.75v-2.79
	l3.12-4.21c0.17-0.21,0.26-0.47,0.28-0.75c0.01-0.14-0.01-0.28-0.06-0.4c-0.05-0.13-0.13-0.25-0.22-0.34
	c-0.1-0.1-0.21-0.17-0.34-0.22c-0.13-0.05-0.27-0.07-0.4-0.06c-0.21,0.01-0.42,0.07-0.6,0.18c-0.18,0.11-0.33,0.27-0.43,0.45
	l-2.39,3.41l-2.35-3.38c-0.1-0.19-0.25-0.35-0.44-0.47c-0.18-0.11-0.4-0.18-0.61-0.18c-0.14,0-0.27,0.02-0.4,0.07
	c-0.13,0.05-0.24,0.12-0.34,0.22c-0.1,0.09-0.18,0.21-0.23,0.33c-0.05,0.13-0.08,0.26-0.09,0.4C44.55,14.38,44.64,14.65,44.81,14.86
	z M62.84,18v0.03c0.06,1.32,0.63,2.58,1.59,3.49c0.96,0.92,2.24,1.42,3.56,1.42c1.33,0,2.6-0.52,3.56-1.44
	c0.96-0.92,1.52-2.17,1.57-3.5v-0.03c-0.06-1.32-0.63-2.58-1.59-3.49c-0.96-0.91-2.24-1.42-3.56-1.42c-1.33,0-2.6,0.52-3.56,1.44
	C63.45,15.42,62.89,16.67,62.84,18z M70.89,18v0.03c0.02,0.39-0.05,0.78-0.19,1.15c-0.14,0.37-0.35,0.7-0.62,0.98
	c-0.27,0.28-0.6,0.5-0.96,0.66c-0.36,0.15-0.75,0.23-1.14,0.23c-0.39,0-0.78-0.08-1.15-0.24c-0.36-0.15-0.69-0.38-0.96-0.66
	s-0.49-0.62-0.63-0.99c-0.14-0.37-0.21-0.76-0.19-1.15v-0.03c-0.02-0.39,0.05-0.78,0.19-1.15c0.14-0.37,0.35-0.7,0.62-0.98
	c0.27-0.28,0.6-0.51,0.96-0.66c0.36-0.15,0.75-0.23,1.14-0.23c0.39,0,0.78,0.08,1.15,0.24c0.36,0.15,0.69,0.38,0.96,0.66
	c0.27,0.28,0.49,0.62,0.63,0.99C70.84,17.21,70.9,17.6,70.89,18z"/>
</svg>
